plugins/sociallogin/linkedin/media/images/linkedin.svg

<svg clip-rule="evenodd" fill-rule="evenodd" height="1em" stroke-linejoin="round" stroke-miterlimit="2" viewBox="0 0 90 80" xmlns="http://www.w3.org/2000/svg"><g transform="matrix(1.01883 0 0 -1.01883 -243.835 104.163)"><path d="m239.33 95.036c0 2.96 2.46 5.361 5.495 5.361h63.376c3.036 0 5.496-2.401 5.496-5.361v-64.117c0-2.961-2.46-5.361-5.496-5.361h-63.376c-3.035 0-5.495 2.4-5.495 5.361z" fill="#069" fill-rule="nonzero"/><path d="m261.873 37.749v33.794h-11.233v-33.794zm-5.617 38.408c3.917 0 6.356 2.595 6.356 5.838-.073 3.316-2.439 5.839-6.281 5.839-3.843 0-6.355-2.523-6.355-5.839 0-3.243 2.438-5.838 6.207-5.838z" fill="#fff"/><path d="m268.088 37.749h11.233v18.872c0 1.01.072 2.019.369 2.741.812 2.018 2.66 4.108 5.763 4.108 4.065 0 5.691-3.099 5.691-7.642v-18.079h11.231v19.377c0 10.38-5.541 15.21-12.931 15.21-6.06 0-8.72-3.387-10.198-5.694h.075v4.901h-11.233c.148-3.171 0-33.794 0-33.794z" fill="#fff"/></g><path d="m.37-.728c.062 0 .122.016.181.048.059.031.105.077.138.136s.049.12.049.185c0 .063-.016.124-.048.183-.033.058-.078.104-.137.136-.058.033-.119.049-.183.049s-.125-.016-.183-.049c-.059-.032-.104-.078-.137-.136-.032-.059-.049-.12-.049-.183 0-.065.017-.126.05-.185s.079-.105.138-.136c.059-.032.119-.048.181-.048zm0 .061c-.052 0-.102.013-.151.04-.049.026-.087.064-.115.114-.028.049-.041.1-.041.154 0 .053.013.104.04.152.027.049.065.087.114.114s.1.041.153.041.104-.014.153-.041.087-.065.114-.114c.027-.048.04-.099.04-.152 0-.054-.014-.105-.041-.154-.028-.05-.066-.088-.115-.114-.049-.027-.099-.04-.151-.04zm-.162.511v-.396h.137c.046 0 .08.003.101.011.021.007.037.02.05.038.012.018.018.038.018.058 0 .029-.01.054-.031.076-.021.021-.048.033-.082.036.014.006.025.013.034.021.016.016.035.042.058.079l.049.077h-.079l-.035-.062c-.027-.049-.05-.08-.067-.093-.011-.009-.028-.013-.051-.013h-.038v.168zm.064-.223h.078c.037 0 .063-.005.076-.017.014-.011.02-.025.02-.043 0-.012-.003-.023-.009-.032-.007-.009-.016-.016-.028-.021-.011-.004-.033-.007-.064-.007h-.073z" fill="#069" fill-rule="nonzero" transform="matrix(16 0 0 16 77 77.5849)"/></svg>

<?xml version="1.0" encoding="UTF-8" standalone="no"?>
<!DOCTYPE svg PUBLIC "-//W3C//DTD SVG 1.1//EN" "http://www.w3.org/Graphics/SVG/1.1/DTD/svg11.dtd">
<svg height="1em" viewBox="0 0 90 80" version="1.1" xmlns="http://www.w3.org/2000/svg" xmlns:xlink="http://www.w3.org/1999/xlink" xml:space="preserve" xmlns:serif="http://www.serif.com/" style="fill-rule:evenodd;clip-rule:evenodd;stroke-linejoin:round;stroke-miterlimit:2;">
    <g transform="matrix(1,0,0,1,-414.435,-393.87)">
        <g id="path14" transform="matrix(1.01883,0,0,-1.01883,170.6,498.033)">
            <path d="M239.33,95.036C239.33,97.996 241.79,100.397 244.825,100.397L308.201,100.397C311.237,100.397 313.697,97.996 313.697,95.036L313.697,30.919C313.697,27.958 311.237,25.558 308.201,25.558L244.825,25.558C241.79,25.558 239.33,27.958 239.33,30.919L239.33,95.036Z" style="fill:rgb(0,102,153);fill-rule:nonzero;"/>
        </g>
        <g id="path28" transform="matrix(1.01883,0,0,-1.01883,170.6,498.033)">
            <path d="M261.873,37.749L261.873,71.543L250.64,71.543L250.64,37.749L261.873,37.749ZM256.256,76.157C260.173,76.157 262.612,78.752 262.612,81.995C262.539,85.311 260.173,87.834 256.331,87.834C252.488,87.834 249.976,85.311 249.976,81.995C249.976,78.752 252.414,76.157 256.183,76.157L256.256,76.157Z" style="fill:white;"/>
        </g>
        <g id="path30" transform="matrix(1.01883,0,0,-1.01883,170.6,498.033)">
            <path d="M268.088,37.749L279.321,37.749L279.321,56.621C279.321,57.631 279.393,58.64 279.69,59.362C280.502,61.38 282.35,63.47 285.453,63.47C289.518,63.47 291.144,60.371 291.144,55.828L291.144,37.749L302.375,37.749L302.375,57.126C302.375,67.506 296.834,72.336 289.444,72.336C283.384,72.336 280.724,68.949 279.246,66.642L279.321,66.642L279.321,71.543L268.088,71.543C268.236,68.372 268.088,37.749 268.088,37.749L268.088,37.749Z" style="fill:white;"/>
        </g>
    </g>
    <g transform="matrix(1,0,0,1,57,63.124)">
        <g transform="matrix(16,0,0,16,20,14.4609)">
            <path d="M0.37,-0.728C0.432,-0.728 0.492,-0.712 0.551,-0.68C0.61,-0.649 0.656,-0.603 0.689,-0.544C0.722,-0.485 0.738,-0.424 0.738,-0.359C0.738,-0.296 0.722,-0.235 0.69,-0.176C0.657,-0.118 0.612,-0.072 0.553,-0.04C0.495,-0.007 0.434,0.009 0.37,0.009C0.306,0.009 0.245,-0.007 0.187,-0.04C0.128,-0.072 0.083,-0.118 0.05,-0.176C0.018,-0.235 0.001,-0.296 0.001,-0.359C0.001,-0.424 0.018,-0.485 0.051,-0.544C0.084,-0.603 0.13,-0.649 0.189,-0.68C0.248,-0.712 0.308,-0.728 0.37,-0.728ZM0.37,-0.667C0.318,-0.667 0.268,-0.654 0.219,-0.627C0.17,-0.601 0.132,-0.563 0.104,-0.513C0.076,-0.464 0.063,-0.413 0.063,-0.359C0.063,-0.306 0.076,-0.255 0.103,-0.207C0.13,-0.158 0.168,-0.12 0.217,-0.093C0.266,-0.066 0.317,-0.052 0.37,-0.052C0.423,-0.052 0.474,-0.066 0.523,-0.093C0.572,-0.12 0.61,-0.158 0.637,-0.207C0.664,-0.255 0.677,-0.306 0.677,-0.359C0.677,-0.413 0.663,-0.464 0.636,-0.513C0.608,-0.563 0.57,-0.601 0.521,-0.627C0.472,-0.654 0.422,-0.667 0.37,-0.667ZM0.208,-0.156L0.208,-0.552L0.345,-0.552C0.391,-0.552 0.425,-0.549 0.446,-0.541C0.467,-0.534 0.483,-0.521 0.496,-0.503C0.508,-0.485 0.514,-0.465 0.514,-0.445C0.514,-0.416 0.504,-0.391 0.483,-0.369C0.462,-0.348 0.435,-0.336 0.401,-0.333C0.415,-0.327 0.426,-0.32 0.435,-0.312C0.451,-0.296 0.47,-0.27 0.493,-0.233L0.542,-0.156L0.463,-0.156L0.428,-0.218C0.401,-0.267 0.378,-0.298 0.361,-0.311C0.35,-0.32 0.333,-0.324 0.31,-0.324L0.272,-0.324L0.272,-0.156L0.208,-0.156ZM0.272,-0.379L0.35,-0.379C0.387,-0.379 0.413,-0.384 0.426,-0.396C0.44,-0.407 0.446,-0.421 0.446,-0.439C0.446,-0.451 0.443,-0.462 0.437,-0.471C0.43,-0.48 0.421,-0.487 0.409,-0.492C0.398,-0.496 0.376,-0.499 0.345,-0.499L0.272,-0.499L0.272,-0.379Z" style="fill:rgb(0,102,153);fill-rule:nonzero;"/>
        </g>
    </g>
</svg>
